!!!OTL: Der Graf von Rom oder der Graf im Pfluge
!!!ARE: Europa, Mitteleuropa, Deutschland
!!!SCT: A0007
!!!YEM: Copyright 1995, estate of Helmut Schaffrath.
**kern
*ICvox
*Ivox
!! Mixed meters:  4/2; 6/2
*M4/2
*k[f#]
*G:
{2g
=1
2g
2g
2b
2g
=2
*M6/2
1dd
1dd
2r}
{2dd
=3
*M4/2
2ee
2dd
2ffn
2dd
=4
*M6/2
1ee
1dd
2r}
{2dd
=5
*M4/2
2b
2b
2cc
2ee
=6
*M6/2
1dd
1dd
2r}
{2dd
=7
*M4/2
2b
2dd
2dd
2b
=8
*M6/2
1a
1g
2r}
{2dd
=9
*M4/2
2.dd
4ee
2dd
2dd
=10
*M6/2
1b
1a
2r}
{2a
=11
1g
2g
1g
2a
=12
1b
1a
2r}
{2d
=13
*M4/2
2g
2g
2a
2a
=14
*M6/2
4b
4a
4b
4cc
1dd
2r}
{2dd
=15
*M4/2
2dd
2b
2a
2b
=16
1a
1g
2r}
==
!!!AGN: Romanze, Ballade, Lied
!! 16.Jh
!!!ONB: ESAC (Essen Associative Code) Database: ALTDEU
!!!AMT: irregular
!!!AIN: vox
!!!EED: Helmut Schaffrath
!!!EEV: 1.0
*-
